!!!OTL: Ein neues Liedlein, die evangelische Lehre betreffend. (1524.)
!!!ARE: Europa, Mitteleuropa, Deutschland
!!!SCT: A0387A
!!!TXL: @@GMH
!!!YEM: Copyright 1995, estate of Helmut Schaffrath.
**kern	**text
!! Mixed meters:  4/2; 6/2
*M4/2yy	*
*clefC3	*
*k[b-]	*
*C:mix	*
=1	=1
!LO:TX:a:t=mixolyd. tr.	!
1ryy	.
2ryy	.
{2c	Es
=2	=2
2c	geth
2c	ein
2d	fri-
2c	-ſcher
=3	=3
!LO:TX:a:t=..	!
2d	ſommer
2e	do-
1f	-her,
=4	=4
2r}	.
{2d	do
2e	werdt
2f	jr
=5	=5
2g	hö-
2g	-ren
2d	neu-
2e	-we
=6	=6
*M6/2	*
1d	mer,
1r}	.
{1g	der
=7	=7
1f	ſchimpff
2e	der
*lig	*
2.f	will
4e	.
*Xlig	*
2d	ſich
=8	=8
1c	ma-
1Bi	-chen,
2r}	.
{2B	Wirt
=9	=9
1c	v-
2c	-ber
1e	Münch
2e	vnd
=10	=10
2f	Pfaffen
*lig	*
4e	.
4d	.
*Xlig	*
1c	geen,
2r}	.
{2c	ſie
=11	=11
*M4/2	*
2d	wey-
2d	-nen
2e	o-
2e	-der
=12	=12
1f	la-
1d}	-chen,
=13	=13
*M6/2	*
*lig	*
{1g	[ia
2e	.
*Xlig	*
2.f	la-
4e	.
4d	.
4c	.
=14	=14
1d	.
0cll}	-chen.]
==	==
!!!GTL: Einige historisch-politische Lieder
!!!AGN: Romanze, Ballade, Lied, religioeses Lied
!! Einzeldruck 1524
!!!ONB: ESAC (Essen Associative Code) Database: ALTDEU
!!!AMT: irregular
!!!AIN: vox
!!!EED: Helmut Schaffrath
!!!EEV: 1.0
!!!RDF**kern: i = editorial accidental
!!!RDF**kern: l = terminal long
!!!AMD: Mixolydian
!!!URL-scan: https://rosdok.uni-rostock.de/mcrviewer/recordIdentifier/rosdok_ppn738218359/iview2/phys_0550.iview2?x=-948.0634874302073&y=547.0992373484187&scale=0.3669911794666851&rotation=0&layout=singlePageLayout&logicalDiv=log_0014
!!!ENC: Anna Maria Matuszewska
!!!EEV: 2024/14/03
*-	*-
